VEGAS Pro 14.0/OpenColorIO/configs/aces/luts/logc800.spi1d
Version 1
From -0.125 1.125
Length 16384
Components 1
{
        -0.0405780928339
        -0.0405638783076
        -0.0405496637813
        -0.040535449255
        -0.0405212347286
        -0.0405070202023
        -0.040492805676
        -0.0404785911497
        -0.0404643766233
        -0.040450162097
        -0.0404359475707
        -0.0404217330444
        -0.0404075185181
        -0.0403933039917
        -0.0403790894654
        -0.0403648749391
        -0.0403506604128
        -0.0403364458865
        -0.0403222313601
        -0.0403080168338
        -0.0402938023075
        -0.0402795877812
        -0.0402653732548
        -0.0402511587285
        -0.0402369442022
        -0.0402227296759
        -0.0402085151496
        -0.0401943006232
        -0.0401800860969
        -0.0401658715706
        -0.0401516570443
        -0.040137442518
        -0.0401232279916
        -0.0401090134653
        -0.040094798939
        -0.0400805844127
        -0.0400663698863
        -0.04005215536
        -0.0400379408337
        -0.0400237263074
        -0.0400095117811
        -0.0399952972547
        -0.0399810827284
        -0.0399668682021
        -0.0399526536758
        -0.0399384391495
        -0.0399242246231
        -0.0399100100968
        -0.0398957955705
        -0.0398815810442
        -0.0398673665178
        -0.0398531519915
        -0.0398389374652
        -0.0398247229389
        -0.0398105084126
        -0.0397962938862
        -0.0397820793599
        -0.0397678648336
        -0.0397536503073
        -0.039739435781
        -0.0397252212546
        -0.0397110067283
        -0.039696792202
        -0.0396825776757
        -0.0396683631493
        -0.039654148623
        -0.0396399340967
        -0.0396257195704
        -0.0396115050441
        -0.0395972905177
        -0.0395830759914
        -0.0395688614651
        -0.0395546469388
        -0.0395404324125
        -0.0395262178861
        -0.0395120033598
        -0.0394977888335
        -0.0394835743072
        -0.0394693597808
        -0.0394551452545
        -0.0394409307282
        -0.0394267162019
        -0.0394125016756
        -0.0393982871492
        -0.0393840726229
        -0.0393698580966
        -0.0393556435703
        -0.039341429044
        -0.0393272145176
        -0.0393129999913
        -0.039298785465
        -0.0392845709387
        -0.0392703564123
        -0.039256141886
        -0.0392419273597
        -0.0392277128334
        -0.0392134983071
        -0.0391992837807
        -0.0391850692544
        -0.0391708547281
        -0.0391566402018
        -0.0391424256755
        -0.0391282111491
        -0.0391139966228
        -0.0390997820965
        -0.0390855675702
        -0.0390713530438
        -0.0390571385175
        -0.0390429239912
        -0.0390287094649
        -0.0390144949386
        -0.0390002804122
        -0.0389860658859
        -0.0389718513596
        -0.0389576368333
        -0.0389434223069
        -0.0389292077806
        -0.0389149932543
        -0.038900778728
        -0.0388865642017
        -0.0388723496753
        -0.038858135149
        -0.0388439206227
        -0.0388297060964
        -0.0388154915701
        -0.0388012770437
        -0.0387870625174
        -0.0387728479911
        -0.0387586334648
        -0.0387444189384
        -0.0387302044121
        -0.0387159898858
        -0.0387017753595
        -0.0386875608332
        -0.0386733463068
        -0.0386591317805
        -0.0386449172542
        -0.0386307027279
        -0.0386164882016
        -0.0386022736752
        -0.0385880591489
        -0.0385738446226
        -0.0385596300963
        -0.0385454155699
        -0.0385312010436
        -0.0385169865173
        -0.038502771991
        -0.0384885574647
        -0.0384743429383
        -0.038460128412
        -0.0384459138857
        -0.0384316993594
        -0.0384174848331
        -0.0384032703067
        -0.0383890557804
        -0.0383748412541
        -0.0383606267278
        -0.0383464122014
        -0.0383321976751
        -0.0383179831488
        -0.0383037686225
        -0.0382895540962
        -0.0382753395698
        -0.0382611250435
        -0.0382469105172
        -0.0382326959909
        -0.0382184814646
        -0.0382042669382
        -0.0381900524119
        -0.0381758378856
        -0.0381616233593
        -0.0381474088329
        -0.0381331943066
        -0.0381189797803
        -0.038104765254
        -0.0380905507277
        -0.0380763362013
        -0.038062121675
        -0.0380479071487
        -0.0380336926224
        -0.0380194780961
        -0.0380052635697
        -0.0379910490434
        -0.0379768345171
        -0.0379626199908
        -0.0379484054644
        -0.0379341909381
        -0.0379199764118
        -0.0379057618855
        -0.0378915473592
        -0.0378773328328
        -0.0378631183065
        -0.0378489037802
        -0.0378346892539
        -0.0378204747276
        -0.0378062602012
        -0.0377920456749
        -0.0377778311486
        -0.0377636166223
        -0.0377494020959
        -0.0377351875696
        -0.0377209730433
        -0.037706758517
        -0.0376925439907
        -0.0376783294643
        -0.037664114938
        -0.0376499004117
        -0.0376356858854
        -0.037621471359
        -0.0376072568327
        -0.0375930423064
        -0.0375788277801
        -0.0375646132538
        -0.0375503987274
        -0.0375361842011
        -0.0375219696748
        -0.0375077551485
        -0.0374935406222
        -0.0374793260958
        -0.0374651115695
        -0.0374508970432
        -0.0374366825169
        -0.0374224679905
        -0.0374082534642
        -0.0373940389379
        -0.0373798244116
        -0.0373656098853
        -0.0373513953589
        -0.0373371808326
        -0.0373229663063
        -0.03730875178
        -0.0372945372537
        -0.0372803227273
        -0.037266108201
        -0.0372518936747
        -0.0372376791484
        -0.037223464622
        -0.0372092500957
        -0.0371950355694
        -0.0371808210431
        -0.0371666065168
        -0.0371523919904
        -0.0371381774641
        -0.0371239629378
        -0.0371097484115
        -0.0370955338852
        -0.0370813193588
        -0.0370671048325
        -0.0370528903062
        -0.0370386757799
        -0.0370244612535
        -0.0370102467272
        -0.0369960322009
        -0.0369818176746
        -0.0369676031483
        -0.0369533886219
        -0.0369391740956
        -0.0369249595693
        -0.036910745043
        -0.0368965305167
        -0.0368823159903
        -0.036868101464
        -0.0368538869377
        -0.0368396724114
        -0.036825457885
        -0.0368112433587
        -0.0367970288324
        -0.0367828143061
        -0.0367685997798
        -0.0367543852534
        -0.0367401707271
        -0.0367259562008
        -0.0367117416745
        -0.0366975271482
        -0.0366833126218
        -0.0366690980955
        -0.0366548835692
        -0.0366406690429
        -0.0366264545165
        -0.0366122399902
        -0.0365980254639
        -0.0365838109376
        -0.0365695964113
        -0.0365553818849
        -0.0365411673586
        -0.0365269528323
        -0.036512738306
        -0.0364985237797
        -0.0364843092533
        -0.036470094727
        -0.0364558802007
        -0.0364416656744
        -0.036427451148
        -0.0364132366217
        -0.0363990220954
        -0.0363848075691
        -0.0363705930428
        -0.0363563785164
        -0.0363421639901
        -0.0363279494638
        -0.0363137349375
        -0.0362995204111
        -0.0362853058848
        -0.0362710913585
        -0.0362568768322
        -0.0362426623059
        -0.0362284477795
        -0.0362142332532
        -0.0362000187269
        -0.0361858042006
        -0.0361715896743
        -0.0361573751479
        -0.0361431606216
        -0.0361289460953
        -0.036114731569
        -0.0361005170426
        -0.0360863025163
        -0.03607208799
        -0.0360578734637
        -0.0360436589374
        -0.036029444411
        -0.0360152298847
        -0.0360010153584
        -0.0359868008321
        -0.0359725863058
        -0.0359583717794
        -0.0359441572531
        -0.0359299427268
        -0.0359157282005
        -0.0359015136741
        -0.0358872991478
        -0.0358730846215
        -0.0358588700952
        -0.0358446555689
        -0.0358304410425
        -0.0358162265162
        -0.0358020119899
        -0.0357877974636
        -0.0357735829373
        -0.0357593684109
        -0.0357451538846
        -0.0357309393583
        -0.035716724832
        -0.0357025103056
        -0.0356882957793
        -0.035674081253
        -0.0356598667267
        -0.0356456522004
        -0.035631437674
        -0.0356172231477
        -0.0356030086214
        -0.0355887940951
        -0.0355745795688
        -0.0355603650424
        -0.0355461505161
        -0.0355319359898
        -0.0355177214635
        -0.0355035069371
        -0.0354892924108
        -0.0354750778845
        -0.0354608633582
        -0.0354466488319
        -0.0354324343055
        -0.0354182197792
        -0.0354040052529
        -0.0353897907266
        -0.0353755762003
        -0.0353613616739
        -0.0353471471476
        -0.0353329326213
        -0.035318718095
        -0.0353045035686
        -0.0352902890423
        -0.035276074516
        -0.0352618599897
        -0.0352476454634
        -0.035233430937
        -0.0352192164107
        -0.0352050018844
        -0.0351907873581
        -0.0351765728318
        -0.0351623583054
        -0.0351481437791
        -0.0351339292528
        -0.0351197147265
        -0.0351055002001
        -0.0350912856738
        -0.0350770711475
        -0.0350628566212
        -0.0350486420949
        -0.0350344275685
        -0.0350202130422
        -0.0350059985159
        -0.0349917839896
        -0.0349775694633
        -0.0349633549369
        -0.0349491404106
        -0.0349349258843
        -0.034920711358
        -0.0349064968316
        -0.0348922823053
        -0.034878067779
        -0.0348638532527
        -0.0348496387264
        -0.0348354242
        -0.0348212096737
        -0.0348069951474
        -0.0347927806211
        -0.0347785660947
        -0.0347643515684
        -0.0347501370421
        -0.0347359225158
        -0.0347217079895
        -0.0347074934631
        -0.0346932789368
        -0.0346790644105
        -0.0346648498842
        -0.0346506353579
        -0.0346364208315
        -0.0346222063052
        -0.0346079917789
        -0.0345937772526
        -0.0345795627262
        -0.0345653481999
        -0.0345511336736
        -0.0345369191473
        -0.034522704621
        -0.0345084900946
        -0.0344942755683
        -0.034480061042
        -0.0344658465157
        -0.0344516319894
        -0.034437417463
        -0.0344232029367
        -0.0344089884104
        -0.0343947738841
        -0.0343805593577
        -0.0343663448314
        -0.0343521303051
        -0.0343379157788
        -0.0343237012525
        -0.0343094867261
        -0.0342952721998
        -0.0342810576735
        -0.0342668431472
        -0.0342526286209
        -0.0342384140945
        -0.0342241995682
        -0.0342099850419
        -0.0341957705156
        -0.0341815559892
        -0.0341673414629
        -0.0341531269366
        -0.0341389124103
        -0.034124697884
        -0.0341104833576
        -0.0340962688313
        -0.034082054305
        -0.0340678397787
        -0.0340536252524
        -0.034039410726
        -0.0340251961997
        -0.0340109816734
        -0.0339967671471
        -0.0339825526207
        -0.0339683380944
        -0.0339541235681
        -0.0339399090418
        -0.0339256945155
        -0.0339114799891
        -0.0338972654628
        -0.0338830509365
        -0.0338688364102
        -0.0338546218839
        -0.0338404073575
        -0.0338261928312
        -0.0338119783049
        -0.0337977637786
        -0.0337835492522
        -0.0337693347259
        -0.0337551201996
        -0.0337409056733
        -0.033726691147
        -0.0337124766206
        -0.0336982620943
        -0.033684047568
        -0.0336698330417
        -0.0336556185154
        -0.033641403989
        -0.0336271894627
        -0.0336129749364
        -0.0335987604101
        -0.0335845458837
        -0.0335703313574
        -0.0335561168311
        -0.0335419023048
        -0.0335276877785
        -0.0335134732521
        -0.0334992587258
        -0.0334850441995
        -0.0334708296732
        -0.0334566151468
        -0.0334424006205
        -0.0334281860942
        -0.0334139715679
        -0.0333997570416
        -0.0333855425152
        -0.0333713279889
        -0.0333571134626
        -0.0333428989363
        -0.03332868441
        -0.0333144698836
        -0.0333002553573
        -0.033286040831
        -0.0332718263047
        -0.0332576117783
        -0.033243397252
        -0.0332291827257
        -0.0332149681994
        -0.0332007536731
        -0.0331865391467
        -0.0331723246204
        -0.0331581100941
        -0.0331438955678
        -0.0331296810415
        -0.0331154665151
        -0.0331012519888
        -0.0330870374625
        -0.0330728229362
        -0.0330586084098
        -0.0330443938835
        -0.0330301793572
        -0.0330159648309
        -0.0330017503046
        -0.0329875357782
        -0.0329733212519
        -0.0329591067256
        -0.0329448921993
        -0.032930677673
        -0.0329164631466
        -0.0329022486203
        -0.032888034094
        -0.0328738195677
        -0.0328596050413
        -0.032845390515
        -0.0328311759887
        -0.0328169614624
        -0.0328027469361
        -0.0327885324097
        -0.0327743178834
        -0.0327601033571
        -0.0327458888308
        -0.0327316743045
        -0.0327174597781
        -0.0327032452518
        -0.0326890307255
        -0.0326748161992
        -0.0326606016728
        -0.0326463871465
        -0.0326321726202
        -0.0326179580939
        -0.0326037435676
        -0.0325895290412
        -0.0325753145149
        -0.0325610999886
        -0.0325468854623
        -0.032532670936
        -0.0325184564096
        -0.0325042418833
        -0.032490027357
        -0.0324758128307
        -0.0324615983043
        -0.032447383778
        -0.0324331692517
        -0.0324189547254
        -0.0324047401991
        -0.0323905256727
        -0.0323763111464
        -0.0323620966201
        -0.0323478820938
        -0.0323336675675
        -0.0323194530411
        -0.0323052385148
        -0.0322910239885
        -0.0322768094622
        -0.0322625949358
        -0.0322483804095
        -0.0322341658832
        -0.0322199513569
        -0.0322057368306
        -0.0321915223042
        -0.0321773077779
        -0.0321630932516
        -0.0321488787253
        -0.0321346641989
        -0.0321204496726
        -0.0321062351463
        -0.03209202062
        -0.0320778060937
        -0.0320635915673
        -0.032049377041
        -0.0320351625147
        -0.0320209479884
        -0.0320067334621
        -0.0319925189357
        -0.0319783044094
        -0.0319640898831
        -0.0319498753568
        -0.0319356608304
        -0.0319214463041
        -0.0319072317778
        -0.0318930172515
        -0.0318788027252
        -0.0318645881988
        -0.0318503736725
        -0.0318361591462
        -0.0318219446199
        -0.0318077300936
        -0.0317935155672
        -0.0317793010409
        -0.0317650865146
        -0.0317508719883
        -0.0317366574619
        -0.0317224429356
        -0.0317082284093
        -0.031694013883
        -0.0316797993567
        -0.0316655848303
        -0.031651370304
        -0.0316371557777
        -0.0316229412514
        -0.0316087267251
        -0.0315945121987
        -0.0315802976724
        -0.0315660831461
        -0.0315518686198
        -0.0315376540934
        -0.0315234395671
        -0.0315092250408
        -0.0314950105145
        -0.0314807959882
        -0.0314665814618
        -0.0314523669355
        -0.0314381524092
        -0.0314239378829
        -0.0314097233566
        -0.0313955088302
        -0.0313812943039
        -0.0313670797776
        -0.0313528652513
        -0.0313386507249
        -0.0313244361986
        -0.0313102216723
        -0.031296007146
        -0.0312817926197
        -0.0312675780933
        -0.031253363567
        -0.0312391490407
        -0.0312249345144
        -0.0312107199881
        -0.0311965054617
        -0.0311822909354
        -0.0311680764091
        -0.0311538618828
        -0.0311396473564
        -0.0311254328301
        -0.0311112183038
        -0.0310970037775
        -0.0310827892512
        -0.0310685747248
        -0.0310543601985
        -0.0310401456722
        -0.0310259311459
        -0.0310117166196
        -0.0309975020932
        -0.0309832875669
        -0.0309690730406
        -0.0309548585143
        -0.0309406439879
        -0.0309264294616
        -0.0309122149353
        -0.030898000409
        -0.0308837858827
        -0.0308695713563
        -0.03085535683
        -0.0308411423037
        -0.0308269277774
        -0.0308127132511
        -0.0307984987247
        -0.0307842841984
        -0.0307700696721
        -0.0307558551458
        -0.0307416406194
        -0.0307274260931
        -0.0307132115668
        -0.0306989970405
        -0.0306847825142
        -0.0306705679878
        -0.0306563534615
        -0.0306421389352
        -0.0306279244089
        -0.0306137098825
        -0.0305994953562
        -0.0305852808299
        -0.0305710663036
        -0.0305568517773
        -0.0305426372509
        -0.0305284227246
        -0.0305142081983
        -0.030499993672
        -0.0304857791457
        -0.0304715646193
        -0.030457350093
        -0.0304431355667
        -0.0304289210404
        -0.030414706514
        -0.0304004919877
        -0.0303862774614
        -0.0303720629351
        -0.0303578484088
        -0.0303436338824
        -0.0303294193561
        -0.0303152048298
        -0.0303009903035
        -0.0302867757772
        -0.0302725612508
        -0.0302583467245
        -0.0302441321982
        -0.0302299176719
        -0.0302157031455
        -0.0302014886192
        -0.0301872740929
        -0.0301730595666
        -0.0301588450403
        -0.0301446305139
        -0.0301304159876
        -0.0301162014613
        -0.030101986935
        -0.0300877724087
        -0.0300735578823
        -0.030059343356
        -0.0300451288297
        -0.0300309143034
        -0.030016699777
        -0.0300024852507
        -0.0299882707244
        -0.0299740561981
        -0.0299598416718
        -0.0299456271454
        -0.0299314126191
        -0.0299171980928
        -0.0299029835665
        -0.0298887690402
        -0.0298745545138
        -0.0298603399875
        -0.0298461254612
        -0.0298319109349
        -0.0298176964085
        -0.0298034818822
        -0.0297892673559
        -0.0297750528296
        -0.0297608383033
        -0.0297466237769
        -0.0297324092506
        -0.0297181947243
        -0.029703980198
        -0.0296897656717
        -0.0296755511453
        -0.029661336619
        -0.0296471220927
        -0.0296329075664
        -0.02961869304
        -0.0296044785137
        -0.0295902639874
        -0.0295760494611
        -0.0295618349348
        -0.0295476204084
        -0.0295334058821
        -0.0295191913558
        -0.0295049768295
        -0.0294907623032
        -0.0294765477768
        -0.0294623332505
        -0.0294481187242
        -0.0294339041979
        -0.0294196896715
        -0.0294054751452
        -0.0293912606189
        -0.0293770460926
        -0.0293628315663
        -0.0293486170399
        -0.0293344025136
        -0.0293201879873
        -0.029305973461
        -0.0292917589346
        -0.0292775444083
        -0.029263329882
        -0.0292491153557
        -0.0292349008294
        -0.029220686303
        -0.0292064717767
        -0.0291922572504
        -0.0291780427241
        -0.0291638281978
        -0.0291496136714
        -0.0291353991451
        -0.0291211846188
        -0.0291069700925
        -0.0290927555661
        -0.0290785410398
        -0.0290643265135
        -0.0290501119872
        -0.0290358974609
        -0.0290216829345
        -0.0290074684082
        -0.0289932538819
        -0.0289790393556
        -0.0289648248293
        -0.0289506103029
        -0.0289363957766
        -0.0289221812503
        -0.028907966724
        -0.0288937521976
        -0.0288795376713
        -0.028865323145
        -0.0288511086187
        -0.0288368940924
        -0.028822679566
        -0.0288084650397
        -0.0287942505134
        -0.0287800359871
        -0.0287658214608
        -0.0287516069344
        -0.0287373924081
        -0.0287231778818
        -0.0287089633555
        -0.0286947488291
        -0.0286805343028
        -0.0286663197765
        -0.0286521052502
        -0.0286378907239
        -0.0286236761975
        -0.0286094616712
        -0.0285952471449
        -0.0285810326186
        -0.0285668180923
        -0.0285526035659
        -0.0285383890396
        -0.0285241745133
        -0.028509959987
        -0.0284957454606
        -0.0284815309343
        -0.028467316408
        -0.0284531018817
        -0.0284388873554
        -0.028424672829
        -0.0284104583027
        -0.0283962437764
        -0.0283820292501
        -0.0283678147238
        -0.0283536001974
        -0.0283393856711
        -0.0283251711448
        -0.0283109566185
        -0.0282967420921
        -0.0282825275658
        -0.0282683130395
        -0.0282540985132
        -0.0282398839869
        -0.0282256694605
        -0.0282114549342
        -0.0281972404079
        -0.0281830258816
        -0.0281688113553
        -0.0281545968289
        -0.0281403823026
        -0.0281261677763
        -0.02811195325
        -0.0280977387236
        -0.0280835241973
        -0.028069309671
        -0.0280550951447
        -0.0280408806184
        -0.028026666092
        -0.0280124515657
        -0.0279982370394
        -0.0279840225131
        -0.0279698079867
        -0.0279555934604
        -0.0279413789341
        -0.0279271644078
        -0.0279129498815
        -0.0278987353551
        -0.0278845208288
        -0.0278703063025
        -0.0278560917762
        -0.0278418772499
        -0.0278276627235
        -0.0278134481972
        -0.0277992336709
        -0.0277850191446
        -0.0277708046182
        -0.0277565900919
        -0.0277423755656
        -0.0277281610393
        -0.027713946513
        -0.0276997319866
        -0.0276855174603
        -0.027671302934
        -0.0276570884077
        -0.0276428738814
        -0.027628659355
        -0.0276144448287
        -0.0276002303024
        -0.0275860157761
        -0.0275718012497
        -0.0275575867234
        -0.0275433721971
        -0.0275291576708
        -0.0275149431445
        -0.0275007286181
        -0.0274865140918
        -0.0274722995655
        -0.0274580850392
